X: 100007
M: C|
L: 1/8
K: D
uB |\
uf |\
d2(fd) edfd | BABd e2(ef) | d2(fd) edfd | BdAF D2(DA) |
d2(fd) edfd | (BA)Bd (fe)ef | (ab)af (dg)fe | (dB)AF D2"_Fine."D "^D.C."|]


